;FLAVOR:UltiGCode
;TIME:7409
;MATERIAL:21201
;MATERIAL2:0
;NOZZLE_DIAMETER:0.6
;Generated with Cura_SteamEngine 3.6.0
M82 ;absolute extrusion mode

G92 E0
G10
;LAYER_COUNT:200
;LAYER:0
M106 S255
M107
G0 F7200 X87.551 Y87.82 Z0.3
;TYPE:SKIRT
G11
G1 F1800 X87.85 Y87.522 E0.06712
G1 X90.329 Y85.306 E0.59581
G1 X90.665 Y85.038 E0.66414
G1 X93.431 Y83.079 E1.20307
G1 X93.788 Y82.855 E1.27008
G1 X96.684 Y81.254 E1.79622
G1 X97.067 Y81.069 E1.86385
G1 X100.18 Y79.779 E2.39963
G1 X100.584 Y79.638 E2.46767
G1 X103.801 Y78.713 E2.9999
G1 X104.216 Y78.618 E3.06759
G1 X107.542 Y78.054 E3.60397
G1 X107.95 Y78.008 E3.66926
G1 X110.57 Y77.852 E4.08657
G1 X110.79 Y77.845 E4.12157
G1 X112.165 Y77.843 E4.3402
G1 X112.4 Y77.85 E4.37758
G1 X115.097 Y78.013 E4.80718
G1 X115.508 Y78.06 E4.87296
G1 X118.827 Y78.628 E5.40835
G1 X119.24 Y78.723 E5.47573
G1 X122.437 Y79.646 E6.00482
G1 X122.839 Y79.787 E6.07255
G1 X125.945 Y81.076 E6.60725
G1 X126.327 Y81.26 E6.67466
G1 X129.245 Y82.874 E7.20487
G1 X129.607 Y83.102 E7.27289
G1 X132.361 Y85.06 E7.81017
G1 X132.691 Y85.324 E7.87736
G1 X135.154 Y87.526 E8.40267
G1 X135.455 Y87.827 E8.47035
G1 X137.716 Y90.358 E9.00997
G1 X137.983 Y90.693 E9.07808
G1 X139.921 Y93.43 E9.61131
G1 X140.147 Y93.79 E9.6789
G1 X141.756 Y96.706 E10.20844
G1 X141.939 Y97.087 E10.27565
G1 X143.222 Y100.184 E10.80865
G1 X143.364 Y100.589 E10.87689
G1 X144.293 Y103.826 E11.41235
G1 X144.386 Y104.237 E11.47935
G1 X144.943 Y107.516 E12.00818
G1 X144.991 Y107.94 E12.07603
G1 X145.179 Y111.297 E12.61063
G1 X145.179 Y111.724 E12.67852
G1 X144.989 Y115.076 E13.21234
G1 X144.941 Y115.501 E13.28035
G1 X144.372 Y118.827 E13.81686
G1 X144.278 Y119.238 E13.8839
G1 X143.358 Y122.43 E14.41209
G1 X143.216 Y122.833 E14.48003
G1 X141.934 Y125.924 E15.01209
G1 X141.751 Y126.304 E15.07915
G1 X140.131 Y129.238 E15.61205
G1 X139.903 Y129.601 E15.6802
G1 X137.965 Y132.33 E16.2124
G1 X137.701 Y132.661 E16.27972
G1 X135.475 Y135.153 E16.811
G1 X135.174 Y135.454 E16.87869
G1 X132.656 Y137.705 E17.4157
G1 X132.322 Y137.972 E17.48369
G1 X129.596 Y139.905 E18.01504
G1 X129.237 Y140.13 E18.0824
G1 X126.316 Y141.745 E18.6131
G1 X125.932 Y141.93 E18.68087
G1 X122.808 Y143.224 E19.21852
G1 X122.404 Y143.365 E19.28655
G1 X119.175 Y144.293 E19.82075
G1 X118.762 Y144.387 E19.88809
G1 X115.499 Y144.941 E20.41433
G1 X115.077 Y144.989 E20.48186
G1 X111.701 Y145.179 E21.0195
G1 X111.274 Y145.179 E21.08739
G1 X107.931 Y144.99 E21.61978
G1 X107.508 Y144.942 E21.68746
G1 X104.204 Y144.379 E22.22037
G1 X103.79 Y144.285 E22.28787
G1 X100.576 Y143.359 E22.81969
G1 X100.175 Y143.218 E22.88727
G1 X97.077 Y141.935 E23.42043
G1 X96.694 Y141.751 E23.48799
G1 X93.76 Y140.13 E24.02096
G1 X93.398 Y139.902 E24.08898
G1 X90.67 Y137.965 E24.62095
G1 X90.339 Y137.701 E24.68827
G1 X87.844 Y135.472 E25.22023
G1 X87.553 Y135.183 E25.28544
G1 X85.775 Y133.211 E25.70762
G1 X85.629 Y133.039 E25.74349
G1 X84.766 Y131.959 E25.9633
G1 X84.625 Y131.771 E26.00066
G1 X83.07 Y129.557 E26.43084
G1 X82.855 Y129.212 E26.49548
G1 X81.254 Y126.316 E27.02162
G1 X81.069 Y125.933 E27.08925
G1 X79.778 Y122.817 E27.62553
G1 X79.637 Y122.413 E27.69357
G1 X78.713 Y119.199 E28.22529
G1 X78.621 Y118.8 E28.2904
G1 X78.159 Y116.143 E28.7192
G1 X78.126 Y115.914 E28.75599
G1 X77.977 Y114.58 E28.96941
G1 X77.959 Y114.356 E29.00514
G1 X77.82 Y111.686 E29.43025
G1 X77.821 Y111.275 E29.4956
G1 X78.01 Y107.931 E30.02814
G1 X78.058 Y107.508 E30.09583
G1 X78.621 Y104.204 E30.62874
G1 X78.715 Y103.79 E30.69624
G1 X79.642 Y100.573 E31.22856
G1 X79.784 Y100.17 E31.29649
G1 X81.076 Y97.056 E31.83255
G1 X81.26 Y96.673 E31.90011
G1 X82.874 Y93.755 E32.43031
G1 X83.102 Y93.393 E32.49833
G1 X85.06 Y90.639 E33.03561
G1 X85.325 Y90.307 E33.10315
G1 X87.551 Y87.82 E33.63385
G0 F7200 X87.946 Y88.173
G1 F1800 X88.203 Y87.917 E33.69152
G1 X90.682 Y85.701 E34.22021
G1 X90.971 Y85.471 E34.27894
G1 X93.737 Y83.512 E34.81786
G1 X94.044 Y83.319 E34.87552
G1 X96.94 Y81.718 E35.40166
G1 X97.27 Y81.559 E35.4599
G1 X100.383 Y80.269 E35.99569
G1 X100.731 Y80.147 E36.05432
G1 X103.948 Y79.222 E36.58655
G1 X104.304 Y79.141 E36.6446
G1 X107.63 Y78.577 E37.18098
G1 X107.982 Y78.537 E37.23731
G1 X110.602 Y78.381 E37.65463
G1 X110.791 Y78.375 E37.68469
G1 X112.166 Y78.373 E37.90332
G1 X112.368 Y78.379 E37.93545
G1 X115.065 Y78.542 E38.36506
G1 X115.419 Y78.583 E38.42172
G1 X118.738 Y79.151 E38.95711
G1 X119.093 Y79.232 E39.01501
G1 X122.29 Y80.155 E39.54409
G1 X122.635 Y80.276 E39.60222
G1 X125.741 Y81.565 E40.13692
G1 X126.07 Y81.724 E40.19502
G1 X128.988 Y83.338 E40.72522
G1 X129.3 Y83.534 E40.78381
G1 X132.054 Y85.492 E41.32108
G1 X132.338 Y85.719 E41.37889
G1 X134.801 Y87.921 E41.9042
G1 X135.06 Y88.18 E41.96243
G1 X137.321 Y90.711 E42.50205
G1 X137.551 Y90.999 E42.56066
G1 X139.489 Y93.736 E43.09389
G1 X139.683 Y94.046 E43.15203
G1 X141.292 Y96.962 E43.68158
G1 X141.449 Y97.289 E43.73925
G1 X142.732 Y100.386 E44.27226
G1 X142.854 Y100.735 E44.33104
G1 X143.783 Y103.972 E44.8665
G1 X143.864 Y104.326 E44.92424
G1 X144.421 Y107.605 E45.45307
G1 X144.462 Y107.969 E45.51131
G1 X144.65 Y111.326 E46.04591
G1 X144.65 Y111.694 E46.10442
G1 X144.46 Y115.046 E46.63825
G1 X144.418 Y115.412 E46.69682
G1 X143.849 Y118.738 E47.23334
G1 X143.768 Y119.091 E47.29093
G1 X142.848 Y122.283 E47.81911
G1 X142.727 Y122.63 E47.87755
G1 X141.445 Y125.721 E48.40961
G1 X141.287 Y126.048 E48.46735
G1 X139.667 Y128.982 E49.00025
G1 X139.471 Y129.294 E49.05883
G1 X137.533 Y132.023 E49.59103
G1 X137.306 Y132.308 E49.64896
G1 X135.08 Y134.8 E50.18024
G1 X134.821 Y135.059 E50.23848
G1 X132.303 Y137.31 E50.7755
G1 X132.016 Y137.539 E50.83388
G1 X129.29 Y139.472 E51.36523
G1 X128.981 Y139.666 E51.42324
G1 X126.06 Y141.281 E51.95394
G1 X125.729 Y141.44 E52.01232
G1 X122.605 Y142.734 E52.54996
G1 X122.258 Y142.856 E52.60845
G1 X119.029 Y143.784 E53.14264
G1 X118.674 Y143.865 E53.20054
G1 X115.411 Y144.419 E53.72678
G1 X115.047 Y144.46 E53.78502
G1 X111.671 Y144.65 E54.32265
G1 X111.304 Y144.65 E54.38101
G1 X107.961 Y144.461 E54.91339
G1 X107.597 Y144.42 E54.97163
G1 X104.293 Y143.857 E55.50454
G1 X103.937 Y143.775 E55.56263
G1 X100.723 Y142.849 E56.09444
G1 X100.378 Y142.729 E56.15252
G1 X97.28 Y141.446 E56.68567
G1 X96.95 Y141.287 E56.74392
G1 X94.016 Y139.666 E57.27689
G1 X93.705 Y139.47 E57.33534
G1 X90.977 Y137.533 E57.86731
G1 X90.692 Y137.306 E57.92524
G1 X88.197 Y135.077 E58.4572
G1 X87.947 Y134.828 E58.5133
G1 X86.169 Y132.856 E58.93548
G1 X86.043 Y132.708 E58.96639
G1 X85.18 Y131.628 E59.18619
G1 X85.059 Y131.467 E59.21822
G1 X83.504 Y129.253 E59.64839
G1 X83.319 Y128.956 E59.70403
G1 X81.718 Y126.06 E60.23017
G1 X81.559 Y125.73 E60.28842
G1 X80.268 Y122.614 E60.8247
G1 X80.146 Y122.266 E60.88333
G1 X79.222 Y119.052 E61.41506
G1 X79.143 Y118.709 E61.47102
G1 X78.681 Y116.052 E61.89983
G1 X78.653 Y115.855 E61.93146
G1 X78.504 Y114.521 E62.14489
G1 X78.488 Y114.329 E62.17552
G1 X78.349 Y111.659 E62.60063
G1 X78.35 Y111.305 E62.65691
G1 X78.539 Y107.961 E63.18946
G1 X78.58 Y107.597 E63.2477
G1 X79.143 Y104.293 E63.78061
G1 X79.225 Y103.937 E63.83869
G1 X80.152 Y100.72 E64.37101
G1 X80.273 Y100.373 E64.42944
G1 X81.565 Y97.259 E64.96549
G1 X81.724 Y96.93 E65.02359
G1 X83.338 Y94.012 E65.5538
G1 X83.534 Y93.7 E65.61238
G1 X85.492 Y90.946 E66.14966
G1 X85.72 Y90.66 E66.20781
G1 X87.946 Y88.173 E66.73851
G10
;MESH:shape2optimazid3.STL
G0 F7200 X87.542 Y92.277
G0 X88.761 Y93.366
G0 X85.732 Y98.56
G0 X84.405 Y101.637
G0 X83.527 Y104.585
G0 X82.801 Y108.135
G0 X82.9 Y108.146
;TYPE:WALL-INNER
G11
G1 F1800 X82.894 Y108.257 E66.75618
G1 X82.704 Y111.5 E67.2727
G1 X82.893 Y114.742 E67.78906
G1 X82.9 Y114.853 E67.80674
G1 X83.439 Y117.922 E68.30218
G1 X83.467 Y118.078 E68.32738
G1 X83.511 Y118.252 E68.35592
G1 X84.344 Y121.024 E68.81614
G1 X84.442 Y121.35 E68.87026
G1 X85.581 Y123.992 E69.32771
G1 X85.767 Y124.423 E69.40235
G1 X87.143 Y126.814 E69.84098
G1 X87.383 Y127.231 E69.91748
G1 X87.481 Y127.381 E69.94597
G1 X89.018 Y129.443 E70.35489
G1 X89.436 Y130.004 E70.46613
G1 X91.171 Y131.842 E70.868
G1 X91.74 Y132.445 E70.99983
G1 X93.577 Y133.987 E71.38117
G1 X94.314 Y134.605 E71.5341
G1 X96.211 Y135.854 E71.89523
G1 X97.047 Y136.405 E72.05443
G1 X97.203 Y136.493 E72.08291
G1 X99.034 Y137.408 E72.40837
G1 X100.096 Y137.939 E72.59715
G1 X102.005 Y138.635 E72.92023
G1 X103.241 Y139.086 E73.12943
G1 X105.105 Y139.529 E73.43406
G1 X106.39 Y139.835 E73.64409
G1 X106.567 Y139.869 E73.67274
G1 X108.281 Y140.068 E73.9471
G1 X109.821 Y140.248 E74.19363
G1 X111.499 Y140.248 E74.46043
G1 X113.175 Y140.247 E74.72691
G1 X114.718 Y140.067 E74.97392
G1 X116.514 Y139.856 E75.26144
G1 X117.896 Y139.53 E75.48721
G1 X119.7 Y139.103 E75.78197
G1 X119.871 Y139.049 E75.81049
G1 X120.995 Y138.638 E76.00077
G1 X122.905 Y137.939 E76.32416
G1 X123.965 Y137.408 E76.51267
G1 X125.898 Y136.438 E76.85654
G1 X126.788 Y135.854 E77.0258
G1 X128.609 Y134.658 E77.3722
G1 X128.754 Y134.551 E77.40085
G1 X129.422 Y133.99 E77.53955
G1 X131.259 Y132.446 E77.9211
G1 X131.827 Y131.843 E78.05282
G1 X133.558 Y130.009 E78.4538
G1 X133.979 Y129.443 E78.56596
G1 X135.568 Y127.31 E78.98887
G1 X135.855 Y126.814 E79.07998
G1 X137.209 Y124.471 E79.51025
G1 X137.285 Y124.31 E79.53856
G1 X137.42 Y123.994 E79.5932
G1 X138.557 Y121.348 E80.05111
G1 X138.654 Y121.024 E80.10488
G1 X139.518 Y118.141 E80.58342
G1 X139.556 Y117.922 E80.61876
G1 X140.084 Y114.951 E81.09855
G1 X140.109 Y114.773 E81.12713
G1 X140.11 Y114.744 E81.13175
G1 X140.296 Y111.5 E81.64839
G1 X140.112 Y108.258 E82.1647
G1 X140.11 Y108.229 E82.16932
G1 X140.085 Y108.049 E82.19821
G1 X139.557 Y105.078 E82.67801
G1 X139.518 Y104.859 E82.71337
G1 X138.656 Y101.977 E83.19167
G1 X138.558 Y101.651 E83.2458
G1 X137.422 Y99.006 E83.7035
G1 X137.285 Y98.688 E83.75855
G1 X137.207 Y98.526 E83.78714
G1 X135.856 Y96.188 E84.21648
G1 X135.568 Y95.69 E84.30795
G1 X133.981 Y93.559 E84.73042
G1 X133.558 Y92.991 E84.84302
G1 X131.829 Y91.158 E85.24367
G1 X131.259 Y90.554 E85.37572
G1 X129.424 Y89.012 E85.75682
G1 X128.754 Y88.449 E85.89597
G1 X128.61 Y88.342 E85.92449
G1 X126.788 Y87.147 E86.27094
G1 X125.898 Y86.562 E86.44028
G1 X123.966 Y85.592 E86.78401
G1 X122.906 Y85.06 E86.97259
G1 X120.997 Y84.363 E87.29572
G1 X119.873 Y83.952 E87.48601
G1 X119.701 Y83.898 E87.51467
G1 X117.896 Y83.471 E87.80959
G1 X116.514 Y83.144 E88.03539
G1 X114.718 Y82.934 E88.3229
G1 X113.175 Y82.753 E88.56992
G1 X111.5 Y82.753 E88.83625
G1 X109.821 Y82.752 E89.10321
G1 X108.281 Y82.931 E89.34972
G1 X106.571 Y83.13 E89.62344
G1 X106.395 Y83.162 E89.65189
G1 X105.105 Y83.469 E89.86272
G1 X103.241 Y83.914 E90.16743
G1 X102.005 Y84.364 E90.37657
G1 X100.095 Y85.06 E90.6998
G1 X99.034 Y85.591 E90.88844
G1 X97.204 Y86.506 E91.21376
G1 X97.046 Y86.596 E91.24267
G1 X96.212 Y87.145 E91.40143
G1 X94.314 Y88.395 E91.76278
G1 X93.578 Y89.012 E91.91548
G1 X91.74 Y90.555 E92.29705
G1 X91.172 Y91.157 E92.42865
G1 X89.436 Y92.996 E92.83076
G1 X89.019 Y93.556 E92.94177
G1 X87.479 Y95.621 E93.35136
G1 X87.383 Y95.771 E93.37967
G1 X87.144 Y96.186 E93.45582
G1 X85.767 Y98.577 E93.89453
G1 X85.582 Y99.007 E93.96895
G1 X84.442 Y101.65 E94.42662
G1 X84.344 Y101.976 E94.48074
G1 X83.512 Y104.747 E94.94076
G1 X83.468 Y104.921 E94.9693
G1 X83.441 Y105.077 E94.99447
G1 X82.9 Y108.146 E95.48997
G0 F7200 X82.801 Y108.135
G0 X82.691 Y110.86
G0 X82.702 Y114.887
G0 X82.604 Y114.903
G1 F1800 X82.579 Y114.76 E95.50447
G1 X82.398 Y111.517 E95.80658
G1 X82.397 Y111.5 E95.80928
G1 X82.397 Y111.484 E95.81129
G1 X82.579 Y108.24 E96.11457
G1 X82.603 Y108.097 E96.12913
G1 X83.127 Y105.023 E96.41873
G1 X83.179 Y104.839 E96.43755
G1 X83.229 Y104.667 E96.45351
G1 X84.031 Y101.883 E96.72309
G1 X84.173 Y101.54 E96.75845
G1 X85.276 Y98.876 E97.02763
G1 X85.517 Y98.44 E97.07477
G1 X86.855 Y96.02 E97.33131
G1 X87.148 Y95.606 E97.37943
G1 X87.251 Y95.461 E97.39447
G1 X88.746 Y93.354 E97.6338
G1 X89.23 Y92.813 E97.7016
G1 X90.922 Y90.922 E97.93712
G1 X91.558 Y90.353 E98.01662
G1 X93.354 Y88.746 E98.24033
G1 X94.158 Y88.176 E98.33211
G1 X96.02 Y86.855 E98.54305
G1 X96.915 Y86.36 E98.63839
G1 X97.074 Y86.272 E98.65296
G1 X98.876 Y85.276 E98.84453
G1 X99.993 Y84.814 E98.95735
G1 X101.883 Y84.031 E99.14803
G1 X103.168 Y83.662 E99.2723
G1 X105.023 Y83.127 E99.45032
G1 X106.351 Y82.901 E99.57536
G1 X106.526 Y82.871 E99.58929
G1 X108.24 Y82.579 E99.75051
G1 X109.805 Y82.492 E99.89547
G1 X111.5 Y82.397 E100.05297
G1 X113.189 Y82.491 E100.21034
G1 X114.76 Y82.579 E100.35713
G1 X116.558 Y82.885 E100.52701
G1 X117.977 Y83.127 E100.66047
G1 X119.774 Y83.644 E100.83402
G1 X119.947 Y83.694 E100.84871
G1 X121.117 Y84.031 E100.96285
G1 X123.007 Y84.813 E101.15323
G1 X124.124 Y85.276 E101.26633
G1 X126.027 Y86.328 E101.46898
G1 X126.98 Y86.855 E101.57047
G1 X128.766 Y88.122 E101.77382
G1 X128.912 Y88.225 E101.7883
G1 X129.646 Y88.746 E101.8729
G1 X131.44 Y90.351 E102.09605
G1 X132.078 Y90.922 E102.17581
G1 X133.764 Y92.806 E102.41086
G1 X134.254 Y93.354 E102.47986
G1 X135.796 Y95.528 E102.72803
G1 X136.145 Y96.02 E102.78447
G1 X137.454 Y98.389 E103.03476
G1 X137.541 Y98.546 E103.0508
G1 X137.724 Y98.876 E103.08695
G1 X138.827 Y101.54 E103.35483
G1 X138.969 Y101.883 E103.39025
G1 X139.802 Y104.777 E103.67087
G1 X139.873 Y105.023 E103.69566
G1 X140.379 Y107.999 E103.97549
G1 X140.41 Y108.177 E103.99174
G1 X140.421 Y108.24 E103.99445
G1 X140.602 Y111.483 E104.29411
G1 X140.603 Y111.5 E104.29682
G1 X140.603 Y111.516 E104.29883
G1 X140.421 Y114.76 E104.60015
G1 X140.411 Y114.823 E104.60482
G1 X140.381 Y115 E104.62113
G1 X139.873 Y117.977 E104.903
G1 X139.803 Y118.222 E104.92764
G1 X138.969 Y121.117 E105.2097
G1 X138.828 Y121.459 E105.24513
G1 X137.724 Y124.124 E105.5144
G1 X137.543 Y124.452 E105.55048
G1 X137.457 Y124.607 E105.56576
G1 X136.145 Y126.98 E105.81647
G1 X135.797 Y127.471 E105.87278
G1 X134.254 Y129.646 E106.12099
G1 X133.765 Y130.193 E106.18985
G1 X132.078 Y132.078 E106.42497
G1 X131.441 Y132.648 E106.5046
G1 X129.646 Y134.254 E106.72781
G1 X128.912 Y134.774 E106.81226
G1 X128.766 Y134.878 E106.82682
G1 X126.98 Y136.145 E107.03018
G1 X126.028 Y136.671 E107.13115
G1 X124.124 Y137.724 E107.3336
G1 X123.008 Y138.186 E107.44669
G1 X121.117 Y138.969 E107.63716
G1 X119.946 Y139.305 E107.75085
G1 X119.774 Y139.355 E107.76504
G1 X117.977 Y139.873 E107.93788
G1 X116.559 Y140.114 E108.07081
G1 X114.76 Y140.421 E108.24031
G1 X113.191 Y140.508 E108.38638
G1 X111.5 Y140.603 E108.54347
G1 X109.807 Y140.509 E108.70075
G1 X108.24 Y140.421 E108.84643
G1 X106.523 Y140.13 E109.00869
G1 X106.346 Y140.099 E109.02328
G1 X105.023 Y139.873 E109.14886
G1 X103.169 Y139.339 E109.3276
G1 X101.883 Y138.969 E109.45245
G1 X99.994 Y138.187 E109.64393
G1 X98.876 Y137.724 E109.75747
G1 X97.073 Y136.728 E109.94977
G1 X96.917 Y136.641 E109.96424
G1 X96.02 Y136.145 E110.05997
G1 X94.159 Y134.825 E110.27146
G1 X93.354 Y134.254 E110.36349
G1 X91.559 Y132.648 E110.58709
G1 X90.922 Y132.078 E110.66669
G1 X89.231 Y130.188 E110.90208
G1 X88.746 Y129.646 E110.97004
G1 X87.254 Y127.543 E111.20891
G1 X87.151 Y127.397 E111.22445
G1 X86.855 Y126.98 E111.27281
G1 X85.518 Y124.561 E111.52833
G1 X85.276 Y124.124 E111.57552
G1 X84.174 Y121.461 E111.8446
G1 X84.031 Y121.117 E111.88009
G1 X83.23 Y118.334 E112.14855
G1 X83.18 Y118.161 E112.16491
G1 X83.127 Y117.977 E112.18365
G1 X82.604 Y114.903 E112.47184
G0 F7200 X82.702 Y114.887
G0 X82.607 Y111.467
G0 X83.2 Y111.5
;TYPE:WALL-OUTER
G1 F1800 X83.392 Y114.796 E112.99679
G1 X83.951 Y117.974 E113.50985
G1 X83.988 Y118.12 E113.5338
G1 X84.908 Y121.18 E114.04185
G1 X86.21 Y124.201 E114.5649
G1 X87.805 Y126.972 E115.07327
G1 X87.887 Y127.097 E115.09704
G1 X89.816 Y129.685 E115.61026
G1 X92.08 Y132.084 E116.13474
G1 X94.61 Y134.207 E116.65988
G1 X97.305 Y135.982 E117.17297
G1 X97.436 Y136.056 E117.19689
G1 X100.292 Y137.484 E117.7046
G1 X103.384 Y138.611 E118.22786
G1 X106.495 Y139.351 E118.73631
G1 X106.643 Y139.38 E118.76029
G1 X109.85 Y139.753 E119.27364
G1 X113.146 Y139.752 E119.79771
G1 X116.428 Y139.368 E120.32311
G1 X119.569 Y138.625 E120.83631
G1 X119.712 Y138.58 E120.86014
G1 X122.708 Y137.484 E121.36738
G1 X125.65 Y136.008 E121.89073
